packages/tokens/icons/bugReport/size24Px.svg

<svg viewBox="0 0 24 24" fill="none" xmlns="http://www.w3.org/2000/svg" width="1em" height="1em"><path d="M5.20182 20.1934C5.19645 20.1977 5.19117 20.2021 5.18598 20.2066C4.84069 20.5061 4.40391 20.5623 4.06959 20.4385C3.7567 20.3227 3.5 20.0389 3.5 19.5381L3.5 4.41928C3.5 3.93727 3.9213 3.5 4.5 3.5L19.5 3.5C20.0787 3.5 20.5 3.93727 20.5 4.41928V17.6529C20.5 18.1023 20.1144 18.5 19.5 18.5H8.1999C7.63349 18.5 7.08387 18.6923 6.64106 19.0455L5.20182 20.1934Z" stroke="currentColor" stroke-linecap="round" stroke-linejoin="round"/><path d="M14 9.5H14.0858C14.351 9.5 14.6054 9.39464 14.7929 9.20711L15.5 8.5" stroke="currentColor" stroke-linecap="round" stroke-linejoin="round"/><path d="M13.5 13.5H14.0858C14.351 13.5 14.6054 13.6054 14.7929 13.7929L15.5 14.5" stroke="currentColor" stroke-linecap="round" stroke-linejoin="round"/><path d="M14 11.5H15.5" stroke="currentColor" stroke-linecap="round" stroke-linejoin="round"/><path d="M10 9.5H9.91421C9.649 9.5 9.39464 9.39464 9.20711 9.20711L8.5 8.5" stroke="currentColor" stroke-linecap="round" stroke-linejoin="round"/><path d="M10.5 13.5H9.91421C9.649 13.5 9.39464 13.6054 9.20711 13.7929L8.5 14.5" stroke="currentColor" stroke-linecap="round" stroke-linejoin="round"/><path d="M10 11.5H8.5" stroke="currentColor" stroke-linecap="round" stroke-linejoin="round"/><path d="M12 14.5C11 14.5 10.7525 12.7868 10.5 11.5C10.2148 10.0469 10.1438 8.5 12 8.5C13.591 8.5 13.7116 10.0469 13.5 11.5C13.3126 12.7868 12.9393 14.5 12 14.5Z" stroke="currentColor" stroke-linecap="round" stroke-linejoin="round"/><circle cx="12" cy="8" r="0.5" stroke="currentColor" stroke-linecap="round" stroke-linejoin="round"/></svg>

<svg xmlns="http://www.w3.org/2000/svg" fill="none" viewBox="0 0 24 24" width="1em" height="1em"><path stroke="currentColor" stroke-linecap="round" stroke-linejoin="round" d="M5.202 20.193a.527.527 0 0 0-.016.014c-.345.3-.782.355-1.116.232-.313-.116-.57-.4-.57-.9V4.418c0-.482.421-.919 1-.919h15c.579 0 1 .437 1 .92v13.233c0 .45-.386.847-1 .847H8.2a2.5 2.5 0 0 0-1.559.546l-1.44 1.147Z"/><path stroke="currentColor" stroke-linecap="round" stroke-linejoin="round" d="M14 9.5h.086a1 1 0 0 0 .707-.293L15.5 8.5m-2 5h.586a1 1 0 0 1 .707.293l.707.707m-1.5-3h1.5m-5.5-2h-.086a1 1 0 0 1-.707-.293L8.5 8.5m2 5h-.586a1 1 0 0 0-.707.293L8.5 14.5m1.5-3H8.5m3.5 3c-1 0-1.248-1.713-1.5-3-.285-1.453-.356-3 1.5-3 1.591 0 1.712 1.547 1.5 3-.187 1.287-.56 3-1.5 3Z"/><circle cx="12" cy="8" r=".5" stroke="currentColor" stroke-linecap="round" stroke-linejoin="round"/></svg>
